!!!COM: Scarlatti, Domenico
!!!CDT: 1685-1757
!!!OTL: Sonata in G major, L.337, K.336
!!!SCT: K. 336
!!!SCT: L. 337
!!!OMD: Allegro ([quarter-dot]=76)
**kern	**kern	**dynam
*staff2	*staff1	*staff1/2
*Icemba	*Icemba	*
*I"L.337 (K.336)	*I"L.337 (K.336)	*
*>[A,A,B,B]	*>[A,A,B,B]	*>[A,A,B,B]
*>norep[A,B]	*>norep[A,B]	*>norep[A,B]
*>A	*>A	*>A
*clefF4	*clefG2	*
*k[f#c#]	*k[f#c#]	*
*D:	*D:	*
*M3/8	*M3/8	*
*MM114	*MM114	*
=1-	=1-	=1-
8r	4.aa^	f
8f#'L	.	.
8d'J	.	.
=2	=2	=2
8r	4.ff#^	.
8d'L	.	.
8B'J	.	.
=3	=3	=3
8r	4.dd^	.
8B'L	.	.
8G'J	.	.
=4	=4	=4
8r	4.b^	.
8G'L	.	.
8E'J	.	.
=5	=5	=5
(8EL	(16ggLL	.
.	16ff#	.
8F#	16ee	.
.	16dd	.
8GJ	16cc#	.
.	16bJJ	.
=6	=6	=6
8AL	8a')	.
.	(32aqq	.
8B	()4gT	.
8c#J	.	.
.	32aqqLLL	.
.	32gqqJJJ	.
!!LO:LB:g=z
=7	=7	=7
8d')	8f#'L)	.
4D^	(16aL	.
.	16f#	.
.	16dd	.
.	16aJJ	.
=8	=8	=8
(16dLL	8ff#'L)	.
16a	.	.
16c#	(8.ee	.
16a	.	.
16A	.	.
16aJJ	32ff#LL	.
.	32ggJJJ	.
=9	=9	=9
16dLL	8ff#'L)	.
16a	.	.
16c#	(8.ee	.
16a	.	.
16A	.	.
16aJJ	32ff#LL	.
.	32ggJJJ	.
=10	=10	=10
16dLL	8ff#'L)	.
16a	.	.
16c#	(8.ee	.
16a	.	.
16A	.	.
16aJJ	32ff#LL	.
.	32ggJJJ	.
=11	=11	=11
8d')	16ff#LL	.
.	16ee	.
4D^	16dd	.
.	16cc#J	.
.	8dd'J)	.
!!LO:LB:g=z
=12	=12	=12
(8eL	(16ggLL	.
.	16b	.
8d#	16ff#	.
.	16b	.
8f#J	16aa	.
.	16bJJ	.
=13	=13	=13
8eL	16ggLL	.
.	16b	.
8d#	16ff#	.
.	16b	.
8f#J	16aa	.
.	16bJJ	.
=14	=14	=14
8eL	16ggLL	.
.	16b	.
8d#	16ff#	.
.	16b	.
8f#J	16aa	.
.	16bJJ	.
=15	=15	=15
8e')	16ggLL	.
.	16ff#	.
4E^	16ee)	.
.	(<16aa	.
.	16gg	.
.	16ff#JJ	.
=16	=16	=16
(8eL	16eeLL	.
.	16dd	.
8f#	16cc#	.
.	16b	.
8gJ	16a#	.
.	16bJJ	.
!!LO:LB:g=z
=17	=17	=17
*	*^	*
8eL	8gg'	16a#LL	.
.	.	16b	p
8f#	8ryy	16a#	.
.	.	16b	.
8gJ	8ryy	16a#	.
.	.	16bJJ	.
=18	=18	=18	=18
8eL	8gg	16a#LL	.
.	.	16b	.
8f#	8ryy	16a#	.
.	.	16b	.
8gJ	8ryy	16a#	.
.	.	16bJJ	.
*	*v	*v	*
=19	=19	=19
8f#'L)	16a#LL	<
.	16b	.
8F#'	16cc#	.
.	16dd	.
8f#'J	16ee	.
.	16ff#JJ	[
=20	=20	=20
(8eL	16ggLL	>
.	16ee	.
8d	16ff#	.
.	16dd	.
8c#J	16ee	.
.	16cc#JJ	]
=21	=21	=21
8BL	16ff#LL	.
.	16ee	.
8c#	16dd	.
.	16cc#	.
8dJ)	16b	.
.	16anJJ	.
!!LO:LB:g=z
=22	=22	=22
*	*^	*
!	!	!	!LO:DY:rj
8E 8dL	8ee'	16g#LL	p
.	.	16a	.
8E 8d	8ryy	16g#	.
.	.	16a	.
8E 8dJ	8ryy	16g#	.
.	.	16aJJ	.
=23	=23	=23	=23
8E 8dL	8ee'	16g#LL	.
.	.	16a	.
8E 8d	8ryy	16g#	.
.	.	16a	.
8E 8dJ	8ryy	16g#	.
.	.	16aJJ	.
*	*v	*v	*
=24	=24	=24
8E 8dL	(16g#LL)	<
.	16a	.
8E 8d	16b	.
.	16cc#	.
8E 8dJ	16dd	.
.	16eeJJ	[[
=25	=25	=25
8E' 8d'L	16ff#LL	<
.	16dd	.
8E' 8c#'	16ee	.
.	16cc#	.
8E' 8B'J	16dd	.
.	16bJJ	.
=26	=26	=26
(16ALL	8cc#'L)	f
16e	.	.
16G#	(8.b	.
16e	.	.
16E	.	.
16eJJ	32cc#LL	.
.	32ddJJJ	.
!!LO:LB:g=z
=27	=27	=27
16ALL	8cc#'L)	.
16e	.	.
16G#	(8.b	.
16e	.	.
16E	.	.
16eJJ	32cc#LL	.
.	32ddJJJ	.
=28	=28	=28
16ALL	8cc#'L)	.
16e	.	.
16G#	(8.b	.
16e	.	.
16E	.	.
16eJJ	32cc#LL	.
.	32ddJJJ	.
=29	=29	=29
8A'L)	16cc#LL	.
.	16a	.
8B'	16dd	.
.	16b	.
8c#'J	16ee	.
.	16cc#JJ	.
=30	=30	=30
8d'L	16ff#LL	.
.	16dd	.
8e'	16gg#	.
.	16ee	.
8f#'J	16aa	.
.	16ff#JJ	.
=31	=31	=31
8e'	16bbLL	.
.	16gg#	.
4E^	16ee	.
.	16b	.
.	16g#	.
.	16bJJ)	.
!!LO:LB:g=z
=32	=32	=32
*	*^	*
!	!	!	!LO:DY:t=sempre %s
(16eLL	4bb^	(8gg#L	f
16d	.	.	.
16c#	.	8ee)	.
16B	.	.	.
16c#	8ccc#'	8aaJ	.
16dJJ	.	.	.
=33	=33	=33	=33
16eLL	4bb^	(8gg#L	.
16d	.	.	.
16c#	.	8ee)	.
16B	.	.	.
16c#	8ccc#'	8aaJ	.
16dJJ	.	.	.
=34	=34	=34	=34
16eLL	4bb^	(8gg#L	.
16d	.	.	.
16c#	.	8ee)	.
16B	.	.	.
16c#	8ccc#'	8aaJ	.
16dJJ	.	.	.
*	*v	*v	*
=35	=35	=35
8e'L)	(16bbLL	.
.	16aa	.
8f#'	16gg#	.
.	16ff#	.
8g#'J	16ee	.
.	16ddJJ	.
=36	=36	=36
(8AL	16cc#LL	.
.	16gg#	.
8B	16aa	.
.	16dd#	.
8c#J	16ee	.
.	16aJJ	.
!!LO:LB:g=z
=37	=37	=37
8d'L)	8ff#')	.
(8e	(4bT	.
8EJ)	.	.
.	32aqqLLL	.
.	32bqqJJJ	.
=38	=38	=38
(16ALL	8cc#L)	.
16e	.	p
16G#	(8.b	.
16e	.	.
16E	.	.
16eJJ	32cc#LL	.
.	32ddJJJ	.
=39	=39	=39
16ALL	8cc#L)	<
16e	.	.
16G#	(8.b	.
16e	.	.
16E	.	.
16eJJ	32cc#LL	.
.	32ddJJJ	.
=40	=40	=40
16ALL	8cc#L)	.
16e	.	.
16G#	(8.b	.
16e	.	.
16E	.	.
16eJJ	32cc#LL	.
.	32ddJJJ	.
=41	=41	=41
8A'L)	16cc#'LL)	f
.	(16gg#	.
8B'	16aa	.
.	16dd#	.
8c#'J	16ee	.
.	16aJJ	.
=42	=42	=42
8d'L	8ff#')	.
(8e	(4bT	.
8EJ)	.	.
.	32aqqLLL	.
.	32bqqJJJ	.
!!LO:LB:g=z
=43	=43	=43
(16ALL	8cc#'L)	.
16e	.	p
16G#	(8.b	.
16e	.	.
16E	.	.
16eJJ	32cc#LL	.
.	32ddJJJ	.
=44	=44	=44
16ALL	8cc#'L)	<
16e	.	.
16G#	(8.b	.
16e	.	.
16E	.	.
16eJJ	32cc#LL	.
.	32ddJJJ	.
=45	=45	=45
16ALL	8cc#'L)	.
16e	.	.
16G#	(8.b	.
16e	.	.
16E	.	.
16eJJ	32cc#LL	.
.	32ddJJJ	.
=46	=46	=46
8A'L)	16cc#'LL)	f
.	(16gg#	.
8B'	16aa	.
.	16dd#	.
8c#'J	16ee	.
.	16aJJ	.
=47	=47	=47
8D'L	8ff#')	.
(8E	(<4bT	.
8EEJ)	.	.
.	32aqqLLL	.
.	32bqqJJJ	.
=48	=48	=48
4.AA^	4.a)	.
!!LO:LB:g=z
=49:|!|:	=49:|!|:	=49:|!|:
*>B	*>B	*>B
4.AA	8a'L	p
.	8a'	.
.	8a'J	.
=50	=50	=50
4.AA	8gn' 8ee'L	.
.	8g' 8ee'	.
.	8g' 8ee'J	.
=51	=51	=51
4.AA	8fn' 8dd'L	.
.	8f' 8dd'	.
.	8f' 8dd'J	.
=52	=52	=52
4.AA	8e' 8ccn'L	.
.	8e' 8cc'	.
.	8e' 8cc'J	.
=53	=53	=53
4.AA	8d' 8b-'L	.
.	8d' 8b-'	.
.	8d' 8b-'J	.
=54	=54	=54
8A'L	(16aLL	<
.	16b-	.
8B'	16a	.
.	16g	.
8c#'J	16fn	.
.	16eJJ)	[[
!!LO:LB:g=z
=55	=55	=55
4.d	(8fnLM	mf >
.	16eL	.
.	16fJ	.
.	8d'J)	]]
=56	=56	=56
(4.d	8ffn'L	p
.	8ff'	.
.	8ff'J	.
=57	=57	=57
4.cn	8ee' 8cccn'L	.
.	8ee' 8ccc'	.
.	8ee' 8ccc'J	.
=58	=58	=58
4.e	8ccn' 8bb-'L	.
.	8cc' 8bb-'	.
.	8cc' 8bb-'J	.
=59	=59	=59
4.fn	8ccn' 8aa'L	.
.	8cc' 8aa'	.
.	8cc' 8aa'J	.
=60	=60	=60
*	*^	*
4.g	(8aaL	4.b	mf
.	16ggL	.	.
.	16ffn	.	.
.	16ee	.	.
.	16ddJJ)	.	.
*	*v	*v	*
!!LO:LB:g=z
=61	=61	=61
4.cn)	(8eeLm	>
.	16ddL	.
.	16eeJ	.
.	8ccn'J)	]]
=62	=62	=62
!	!	!LO:DY:rj
4.A	8aa'L	p
.	8aa'	.
.	8aa'J	.
=63	=63	=63
4.A	8gg' 8aa'L	.
.	8gg' 8aa'	.
.	8gg' 8aa'J	.
=64	=64	=64
4.A	8ffn' 8ddd'L	.
.	8ff' 8ddd'	.
.	8ff' 8ddd'J	.
=65	=65	=65
4.A	8ee' 8cccn'L	.
.	8ee' 8ccc'	.
.	8ee' 8ccc'J	.
=66	=66	=66
(4.d	8dd (8bbL	mf
.	8ccn 8aa)	.
.	8dd' 8bb'J	.
!!LO:LB:g=z
=67	=67	=67
4.fn	8ccn (8aaL	.
.	8b 8gg#)	.
.	8cc ((<[8aaJ	.
=68	=68	=68
*	*^	*
4.e)	8aaL])	4b	>
.	16gg#L	.	.
.	16ff#J	.	.
.	8eeJ)	8ryy	]]
=69	=69	=69	=69
(16eLL	(8bL	4g#	mf
16d	.	.	.
16cn	8ee)	.	.
16B	.	.	.
16c	8ccn'J	8a'	.
16dJJ	.	.	.
=70	=70	=70	=70
16eLL	(8bL	4g#	.
16d	.	.	.
16cn	8ee)	.	.
16B	.	.	.
16c	8ccn'J	8a'	.
16dJJ	.	.	.
=71	=71	=71	=71
16eLL	(8bL	4g#	.
16d	.	.	.
16cn	8ee)	.	.
16B	.	.	.
16c	8ccn'J	8a'	.
16dJJ	.	.	.
*	*v	*v	*
=72	=72	=72
4.e)	(16bLL	.
.	16a	.
.	16g#	.
.	16f#J	.
.	8e'J)	.
!!LO:LB:g=z
=73	=73	=73
*	*^	*
(16ALL	(8eeL	4cc#	f
16G	.	.	.
16F#	8aa)	.	.
16E	.	.	.
16F#	8ff#'J	8dd'	.
16GJJ	.	.	.
=74	=74	=74	=74
16ALL	(8eeL	4cc#	.
16G	.	.	.
16F#	8aa)	.	.
16E	.	.	.
16F#	8ff#'J	8dd'	.
16GJJ	.	.	.
=75	=75	=75	=75
16ALL	(8eeL	4cc#	.
16G	.	.	.
16F#	8aa)	.	.
16E	.	.	.
16F#	8ff#'J	8dd'	.
16GJJ	.	.	.
*	*v	*v	*
=76	=76	=76
4.A)	(16eeLL	.
.	16dd	.
.	16cc#	.
.	16bJ	.
.	8a'J)	.
=77	=77	=77
(8dL	(16ff#LL	p
.	16a	.
8c#	16ee	.
.	16a	.
8eJ	16gg	.
.	16aJJ	.
!!LO:LB:g=z
=78	=78	=78
8dL	16ff#LL	<
.	16a	.
8c#	16ee	.
.	16a	.
8eJ	16gg	.
.	16aJJ	.
=79	=79	=79
8dL	16ff#LL	.
.	16a	.
8c#	16ee	.
.	16a	.
8eJ	16gg	.
.	16aJJ	.
=80	=80	=80
8D'L)	16ff#LL	.
.	16ee	.
8E'	16dd	.
.	16ccn	.
8F#'J	16b	.
.	16aJJ	.
=81	=81	=81
(16GLL	8b'L>)	mf
16d	.	.
16F#	(8.a	.
16d	.	.
16D	.	.
16dJJ	32bLL	.
.	32ccnJJJ	.
=82	=82	=82
16GLL	8b'L>)	.
16d	.	.
16F#	(<8.a	.
16d	.	.
16D	.	.
16dJJ	32bLL	.
.	32ccnJJJ	.
!!LO:LB:g=z
=83	=83	=83
16GLL	8b'L>)	.
16d	.	.
16F#	(8.a	.
16d	.	.
16D	.	.
16dJJ	32bLL	.
.	32ccnJJJ	.
=84	=84	=84
8G'L)	16bLL	<
.	16dd	.
8E'	16cc#X	.
.	16ee	.
8F#'J	16dd	.
.	16ff#JJ	.
=85	=85	=85
(8GL	16eeLL	.
.	16gg	.
8A')	16ff#	.
.	16ee	.
8AA'J	16dd	.
.	16cc#JJ	.
=86	=86	=86
(16dLL	8ff#'L)	f
16a	.	.
16c#	(8.ee	.
16a	.	.
16A	.	.
16aJJ	32ff#LL	.
.	32ggJJJ	.
=87	=87	=87
16dLL	8ff#'L)	.
16a	.	.
16c#	(8.ee	.
16a	.	.
16A	.	.
16aJJ	32ff#LL	.
.	32ggJJJ	.
!!LO:LB:g=z
=88	=88	=88
16dLL	8ff#'L)	.
16a	.	.
16c#	(8.ee	.
16a	.	.
16A	.	.
16aJJ	32ff#LL	.
.	32ggJJJ	.
=89	=89	=89
8d'L)	16ff#'LL)	.
.	(16ccc#	.
8e'	16ddd	.
.	16gg#	.
8f#'J	16aa	.
.	16ddJJ	.
=90	=90	=90
8G'L	8bb')	.
(8A	(4eeT	.
8AAJ)	.	.
.	32ddqqLLL	.
.	32eeqqJJJ	.
=91	=91	=91
(16DLL	8dd'L)	.
16A	.	.
16C#	(8.e	p
16A	.	.
16AA	.	.
16AJJ	32f#LL	.
.	32gJJJ	.
=92	=92	=92
16DLL	8f#'L)	<
16A	.	.
16C#	(8.e	.
16A	.	.
16AA	.	.
16AJJ	32f#LL	.
.	32gJJJ	.
!!LO:LB:g=z
=93	=93	=93
16DLL	8f#'L)	.
16A	.	.
16C#	(<8.e	.
16A	.	.
16AA	.	.
16AJJ	32f#LL	.
.	32gJJJ	.
=94	=94	=94
8D'L)	16f#'LL)	f
.	(16dd	.
8E'	16cc#	.
.	16ee	.
8F#'J	16dd	.
.	16aJJ	.
=95	=95	=95
8G'L	16bLL	.
.	16gJ)	.
(8A	(8.eeT	.
8AAJ	.	.
.	32ddLL	.
.	32eeJJJ	.
=96	=96	=96
8D'L)	16ff#'LL)	.
.	(16aa	.
8E'	16cc#	.
.	16ee	.
8F#'J	16dd	.
.	16aJJ	.
=97	=97	=97
8G'L	8b')	.
(8A	(4eT	.
8AAJ)	.	.
.	32dqqLLL	.
.	32eqqJJJ	.
=98	=98	=98
4.DD^	4.d)	.
==:|!	==:|!	==:|!
*-	*-	*-
!!!RDF**kern: > = above
!!!RDF**kern: < = below
!!!PTL: Domenico Scarlatti: Opere complete per clavicembalo
!!!PED: Longo, Alessandro
!!!PPR: Ricordi
!!!PPP: Milan
!!!PDT: 1906-1913
!!!ENC: Craig Stuart Sapp
!!!END: 2004/10/30
!!!EED: Craig Stuart Sapp
!!!EEV: 2020/12/18
